X: 46
T: ROND PALUDIER
M: 4/4
L: 1/8
Q:1/4=120
K:C
|cABc ddde|cdc3/2 z/2 cABc|ddde cdc3/2 z/2 |cABc ddde|
cdc3/2 z/2 cABc|ddde cdc3/2 z/2 |cddd A3/2 z/2 GG|Gccc dddA|
GGGc ccdd|dA3/2 z/2 G GGcc|cddd A3/2 z/2 GG|Gccd ddA3/2 z/2 |
GGGc ccdd|dAGG Gccc|dddA3/2 z/2 GGG|cccd ddA3/2 z/2 |
GGGc|
